Project/img/HOME.svg

<svg xmlns="http://www.w3.org/2000/svg" xmlns:xlink="http://www.w3.org/1999/xlink" preserveAspectRatio="xMidYMid" width="32" height="30.5" viewBox="0 0 32 30.5">
  <defs>
    <style>
      .cls-1 {
        fill: #95e1d3;
        fill-rule: evenodd;
      }
    </style>
  </defs>
  <path d="M32.000,16.000 C32.000,16.828 31.328,17.500 30.500,17.500 C30.105,17.500 29.748,17.344 29.480,17.094 L29.477,17.098 L16.038,3.659 L16.038,3.659 L16.000,3.622 L16.000,3.622 L2.554,17.069 L2.553,17.068 C2.282,17.335 1.910,17.500 1.500,17.500 C0.672,17.500 -0.000,16.828 -0.000,16.000 C-0.000,15.575 0.177,15.192 0.461,14.919 L14.919,0.460 C15.192,0.177 15.575,-0.000 16.000,-0.000 L16.000,-0.000 L16.000,-0.000 C16.000,-0.000 16.000,-0.000 16.001,-0.000 C16.027,-0.000 16.053,0.000 16.080,0.002 C16.084,0.002 16.088,0.003 16.092,0.003 C16.115,0.004 16.137,0.006 16.160,0.009 C16.161,0.009 16.162,0.009 16.164,0.009 C16.531,0.049 16.858,0.221 17.097,0.477 L17.098,0.476 L23.000,6.378 L23.000,5.000 C23.000,4.171 23.671,3.500 24.500,3.500 C25.328,3.500 26.000,4.171 26.000,5.000 L26.000,9.378 L31.598,14.976 L31.594,14.980 C31.844,15.248 32.000,15.605 32.000,16.000 ZM29.000,18.500 L29.000,23.000 L29.000,25.000 L29.000,29.000 C29.000,29.828 28.328,30.500 27.500,30.500 L24.500,30.500 L24.500,18.500 L18.500,18.500 L18.500,30.500 L4.500,30.500 C3.672,30.500 3.000,29.828 3.000,29.000 L3.000,25.000 L3.000,23.000 L3.000,18.500 L16.000,5.500 L29.000,18.500 ZM13.500,18.500 L7.500,18.500 L7.500,24.500 L13.500,24.500 L13.500,18.500 Z" class="cls-1"/>
</svg>

<svg xmlns="http://www.w3.org/2000/svg" width="32" height="30.5" preserveAspectRatio="xMidYMid"><defs><style>.cls-1 { fill: #95e1d3; fill-rule: evenodd; }</style></defs><path d="M32 16c0 .83-.67 1.5-1.5 1.5-.4 0-.75-.16-1.02-.4L16.04 3.66 16 3.62 2.55 17.07c-.27.27-.64.43-1.05.43-.83 0-1.5-.67-1.5-1.5 0-.43.18-.8.46-1.08L14.92.46C15.2.18 15.57 0 16 0c.03 0 .05 0 .08 0 .04 0 .06 0 .08 0 .37.05.7.22.94.48l5.9 5.9V5c0-.83.67-1.5 1.5-1.5S26 4.17 26 5v4.38l5.6 5.6c.24.27.4.63.4 1.02zm-3 2.5V29c0 .83-.67 1.5-1.5 1.5h-3v-12h-6v12h-14c-.83 0-1.5-.67-1.5-1.5V18.5l13-13 13 13zm-15.5 0h-6v6h6v-6z" class="cls-1"/></svg>
